X: 40
T: JOE MANN'S FAREWELL TO LEICESTER CITY POLICE
C: Andrew Rankine 1980
R: march, jig
B: "The Complete Andrew Rankine Collection of Scottish Country Dance Tunes" p.43
Z: 2017 John Chambers <jc:trillian.mit.edu>
M: 6/8
L: 1/8
K: A
e |\
"A"ABA cBB | cAA Acf | e3 ecA | "E7"cBB B2e |\
"A"ABA cBB | cAA Acf | e2c "G"dB=G | "A"A3- A2 :|
|: e |\
"A"aA=g fAe | cAA Ace | aA=g fAe | "E7"cBB B2e |\
"A"aA=g fAe | cAA Acf | e2c "G"dB=G | "A"A3- A2 :|
|: e |\
"A"A/A/AA "E7"cBB | "A"cAA "D"fef | "A"a3 ecA | "B7"cBB "E7"B2e |\
"A"A/A/AA "E7"cBB | "A"cAA "D"fef | "A"a2c "G"dB=G | "A"A3- A2 :|
|: e |\
"A"a3 A=gA | "D"f3 AfA | "A"e3 Ace | "B7"cBB "E7"B2e |\
"A"a3 A=gA | "D"f3 AfA | "A"e2c "G"dB=G | "A"A3- A2 :|

%%sep 1 1 500

